;FLAVOR:Marlin
;TIME:136
;Filament used: 0.0359907m
;Layer height: 0.2
;MINX:101.858
;MINY:48.556
;MINZ:0.2
;MAXX:133.876
;MAXY:75.556
;MAXZ:5.4
;Generated with Cura_SteamEngine 4.8.0
M140 S60
M105
M190 S60
M104 S205
M105
M109 S205
M82 ;absolute extrusion mode
M201 X500.00 Y500.00 Z100.00 E5000.00 ;Setup machine max acceleration
M203 X500.00 Y500.00 Z10.00 E50.00 ;Setup machine max feedrate
M204 P500.00 R1000.00 T500.00 ;Setup Print/Retract/Travel acceleration
M205 X8.00 Y8.00 Z0.40 E5.00 ;Setup Jerk
M220 S100 ;Reset Feedrate
M221 S100 ;Reset Flowrate

G28 ;Home

G92 E0 ;Reset Extruder
G1 Z2.0 F3000 ;Move Z Axis up
G1 X10.1 Y20 Z0.28 F5000.0 ;Move to start position
G1 X10.1 Y200.0 Z0.28 F1500.0 E15 ;Draw the first line
G1 X10.4 Y200.0 Z0.28 F5000.0 ;Move to side a little
G1 X10.4 Y20 Z0.28 F1500.0 E30 ;Draw the second line
G92 E0 ;Reset Extruder
G1 Z2.0 F3000 ;Move Z Axis up

G92 E0
G92 E0
G1 F1500 E-6.5
;LAYER_COUNT:27
;LAYER:0
M107
G0 F6000 X103.124 Y54.836 Z0.2
;TYPE:SKIRT
G1 F1500 E0
G1 F1200 X103.585 Y54.019 E0.0312
G1 X104.114 Y53.245 E0.06238
G1 X104.522 Y52.732 E0.08418
G1 X104.653 Y52.577 E0.09093
G1 X105.288 Y51.888 E0.1221
G1 X105.98 Y51.254 E0.15331
G1 X106.723 Y50.682 E0.1845
G1 X107.512 Y50.176 E0.21568
G1 X108.342 Y49.738 E0.24689
G1 X109.459 Y49.282 E0.28702
G1 X109.78 Y49.171 E0.29831
G1 X110.679 Y48.903 E0.32952
G1 X111.597 Y48.712 E0.3607
G1 X112.528 Y48.6 E0.39189
G1 X113.208 Y48.568 E0.41453
G1 X114.098 Y48.556 E0.44414
G1 X118.051 Y48.556 E0.57561
G1 X118.89 Y48.567 E0.60352
G1 X119.826 Y48.621 E0.6347
G1 X121.083 Y48.821 E0.67704
G1 X121.343 Y48.878 E0.68589
G1 X122.249 Y49.118 E0.71706
G1 X123.132 Y49.434 E0.74826
G1 X123.829 Y49.746 E0.77366
G1 X124.162 Y49.914 E0.78606
G1 X127.173 Y51.499 E0.89924
G1 X128.356 Y52.221 E0.94533
G1 X128.819 Y52.545 E0.96413
G1 X129.14 Y52.778 E0.97732
G1 X129.291 Y52.892 E0.98361
G1 X130.015 Y53.488 E1.0148
G1 X130.685 Y54.144 E1.04599
G1 X131.297 Y54.855 E1.07719
G1 X131.846 Y55.615 E1.10837
G1 X132.329 Y56.42 E1.1396
G1 X132.741 Y57.262 E1.17078
G1 X133.068 Y58.101 E1.20073
G1 X133.209 Y58.512 E1.21518
G1 X133.303 Y58.801 E1.22529
G1 X133.383 Y59.057 E1.23421
G1 X133.625 Y59.963 E1.2654
G1 X133.788 Y60.887 E1.2966
G1 X133.872 Y61.821 E1.32779
G1 X133.876 Y62.759 E1.35899
G1 X133.8 Y63.694 E1.39019
G1 X133.645 Y64.619 E1.42139
G1 X133.403 Y65.555 E1.45354
G1 X133.266 Y66.003 E1.46912
G1 X133.16 Y66.333 E1.48065
G1 X133.082 Y66.562 E1.4887
G1 X132.742 Y67.436 E1.51989
G1 X132.328 Y68.278 E1.5511
G1 X131.845 Y69.081 E1.58227
G1 X131.295 Y69.841 E1.61347
G1 X130.682 Y70.551 E1.64467
G1 X130.011 Y71.206 E1.67585
G1 X129.29 Y71.799 E1.7069
G1 X128.953 Y72.053 E1.72094
G1 X128.655 Y72.27 E1.7332
G1 X128.413 Y72.44 E1.74304
G1 X127.623 Y72.946 E1.77424
G1 X126.793 Y73.383 E1.80544
G1 X125.929 Y73.747 E1.83662
G1 X125.402 Y73.928 E1.85515
G1 X122.408 Y74.918 E1.96004
G1 X122.368 Y74.932 E1.96145
G1 X121.47 Y75.203 E1.99265
G1 X120.552 Y75.395 E2.02384
G1 X119.621 Y75.509 E2.05504
G1 X118.934 Y75.542 E2.07791
G1 X118.139 Y75.555 E2.10436
G1 X114.065 Y75.556 E2.23986
G1 X113.259 Y75.546 E2.26667
G1 X112.322 Y75.493 E2.29788
G1 X111.036 Y75.288 E2.3412
G1 X110.751 Y75.225 E2.3509
G1 X109.844 Y74.983 E2.38213
G1 X108.962 Y74.666 E2.4133
G1 X108.11 Y74.274 E2.44449
G1 X107.294 Y73.811 E2.4757
G1 X106.521 Y73.281 E2.50687
G1 X105.938 Y72.812 E2.53176
G1 X105.792 Y72.686 E2.53817
G1 X105.109 Y72.043 E2.56937
G1 X104.483 Y71.345 E2.60055
G1 X103.919 Y70.596 E2.63174
G1 X103.42 Y69.801 E2.66296
G1 X102.991 Y68.967 E2.69415
G1 X102.598 Y67.995 E2.72902
G1 X102.488 Y67.681 E2.74009
G1 X102.216 Y66.783 E2.7713
G1 X102.021 Y65.866 E2.80248
G1 X101.905 Y64.935 E2.83368
G1 X101.87 Y64.202 E2.85809
G1 X101.858 Y63.279 E2.88879
G1 X101.859 Y60.576 E2.97869
G1 X101.869 Y59.917 E3.00061
G1 X101.923 Y58.981 E3.0318
G1 X102.123 Y57.73 E3.07393
G1 X102.178 Y57.479 E3.08248
G1 X102.418 Y56.572 E3.11369
G1 X102.734 Y55.689 E3.14488
G1 X103.124 Y54.836 E3.17607
G0 F6000 X103.503 Y54.972
G1 F1200 X103.96 Y54.173 E3.20669
G1 X104.485 Y53.417 E3.2373
G1 X104.827 Y52.991 E3.25547
G1 X104.958 Y52.836 E3.26222
G1 X105.582 Y52.159 E3.29284
G1 X106.263 Y51.539 E3.32348
G1 X106.995 Y50.98 E3.35411
G1 X107.772 Y50.488 E3.3847
G1 X108.59 Y50.064 E3.41534
G1 X109.59 Y49.66 E3.45121
G1 X109.911 Y49.549 E3.46251
G1 X110.793 Y49.286 E3.49312
G1 X111.695 Y49.101 E3.52375
G1 X112.61 Y48.995 E3.55438
G1 X113.214 Y48.968 E3.57449
G1 X114.098 Y48.956 E3.6039
G1 X118.051 Y48.956 E3.73538
G1 X118.884 Y48.967 E3.76308
G1 X119.803 Y49.021 E3.7937
G1 X120.997 Y49.212 E3.83392
G1 X121.257 Y49.269 E3.84277
G1 X122.147 Y49.505 E3.8734
G1 X123.013 Y49.817 E3.90401
G1 X123.653 Y50.105 E3.92736
G1 X123.976 Y50.268 E3.93939
G1 X126.987 Y51.853 E4.05256
G1 X128.126 Y52.548 E4.09694
G1 X128.589 Y52.872 E4.11574
G1 X128.899 Y53.097 E4.12848
G1 X129.05 Y53.211 E4.13477
G1 X129.76 Y53.797 E4.16539
G1 X130.416 Y54.443 E4.19601
G1 X131.014 Y55.143 E4.22663
G1 X131.549 Y55.892 E4.25725
G1 X132.017 Y56.685 E4.28787
G1 X132.414 Y57.515 E4.31847
G1 X132.689 Y58.231 E4.34398
G1 X132.83 Y58.642 E4.35844
G1 X132.921 Y58.92 E4.36817
G1 X133.001 Y59.176 E4.37709
G1 X133.238 Y60.066 E4.40772
G1 X133.396 Y60.973 E4.43834
G1 X133.475 Y61.89 E4.46895
G1 X133.473 Y62.811 E4.49959
G1 X133.392 Y63.728 E4.5302
G1 X133.232 Y64.635 E4.56084
G1 X133.021 Y65.438 E4.58845
G1 X132.884 Y65.886 E4.60403
G1 X132.781 Y66.204 E4.61515
G1 X132.703 Y66.433 E4.6232
G1 X132.369 Y67.29 E4.65379
G1 X131.961 Y68.116 E4.68443
G1 X131.483 Y68.903 E4.71506
G1 X130.939 Y69.646 E4.74568
G1 X130.333 Y70.338 E4.77628
G1 X129.668 Y70.976 E4.80693
G1 X129.049 Y71.48 E4.83348
G1 X128.712 Y71.734 E4.84751
G1 X128.425 Y71.943 E4.85932
G1 X128.183 Y72.113 E4.86916
G1 X127.408 Y72.609 E4.89976
G1 X126.592 Y73.036 E4.9304
G1 X125.742 Y73.39 E4.96102
G1 X125.282 Y73.547 E4.97719
G1 X125.161 Y73.585 E4.9814
G1 X122.236 Y74.555 E5.0839
G1 X121.354 Y74.819 E5.11452
G1 X120.453 Y75.006 E5.14513
G1 X119.539 Y75.114 E5.17574
G1 X118.927 Y75.142 E5.19612
G1 X118.132 Y75.155 E5.22256
G1 X114.065 Y75.156 E5.35783
G1 X113.264 Y75.146 E5.38447
G1 X112.345 Y75.093 E5.41509
G1 X111.122 Y74.897 E5.45629
G1 X110.837 Y74.834 E5.46599
G1 X109.948 Y74.597 E5.4966
G1 X109.082 Y74.283 E5.52723
G1 X108.247 Y73.895 E5.55786
G1 X107.449 Y73.436 E5.58848
G1 X106.693 Y72.91 E5.61911
G1 X106.199 Y72.509 E5.64027
G1 X106.053 Y72.383 E5.64669
G1 X105.383 Y71.752 E5.6773
G1 X104.77 Y71.065 E5.70792
G1 X104.219 Y70.327 E5.73855
G1 X103.734 Y69.544 E5.76919
G1 X103.319 Y68.723 E5.79978
G1 X102.975 Y67.863 E5.83059
G1 X102.865 Y67.549 E5.84166
G1 X102.599 Y66.667 E5.8723
G1 X102.41 Y65.766 E5.90292
G1 X102.3 Y64.852 E5.93354
G1 X102.27 Y64.196 E5.95538
G1 X102.258 Y63.279 E5.98588
G1 X102.259 Y60.582 E6.07558
G1 X102.269 Y59.923 E6.0975
G1 X102.323 Y59.004 E6.12812
G1 X102.514 Y57.815 E6.16818
G1 X102.569 Y57.564 E6.17672
G1 X102.805 Y56.674 E6.20735
G1 X103.117 Y55.808 E6.23796
G1 X103.503 Y54.972 E6.26859
G0 F6000 X103.882 Y55.11
G1 F1200 X104.336 Y54.329 E6.29863
G1 X105.133 Y53.249 E6.34328
G1 X105.264 Y53.094 E6.35003
G1 X105.877 Y52.431 E6.38006
G1 X106.546 Y51.824 E6.4101
G1 X107.266 Y51.279 E6.44014
G1 X108.032 Y50.8 E6.47019
G1 X108.836 Y50.391 E6.50019
G1 X109.721 Y50.038 E6.53188
G1 X110.042 Y49.927 E6.54318
G1 X110.907 Y49.67 E6.57319
G1 X111.792 Y49.491 E6.60322
G1 X112.69 Y49.39 E6.63328
G1 X113.22 Y49.368 E6.65092
G1 X114.098 Y49.356 E6.68013
G1 X118.051 Y49.356 E6.8116
G1 X118.878 Y49.367 E6.83911
G1 X119.779 Y49.42 E6.86913
G1 X120.911 Y49.603 E6.90727
G1 X121.171 Y49.66 E6.91612
G1 X122.044 Y49.892 E6.94617
G1 X122.893 Y50.2 E6.9762
G1 X123.477 Y50.464 E6.99752
G1 X123.789 Y50.622 E7.00915
G1 X126.8 Y52.207 E7.12233
G1 X127.897 Y52.876 E7.16506
G1 X128.36 Y53.2 E7.18386
G1 X128.658 Y53.416 E7.1961
G1 X128.809 Y53.53 E7.20239
G1 X129.505 Y54.106 E7.23244
G1 X130.147 Y54.741 E7.26248
G1 X130.731 Y55.43 E7.29252
G1 X131.251 Y56.168 E7.32254
G1 X131.704 Y56.949 E7.35257
G1 X132.087 Y57.768 E7.38264
G1 X132.311 Y58.361 E7.40373
G1 X132.452 Y58.772 E7.41818
G1 X132.54 Y59.04 E7.42756
G1 X132.62 Y59.296 E7.43648
G1 X132.851 Y60.169 E7.46652
G1 X133.003 Y61.059 E7.49655
G1 X133.077 Y61.959 E7.52658
G1 X133.071 Y62.862 E7.55662
G1 X132.984 Y63.761 E7.58666
G1 X132.819 Y64.649 E7.6167
G1 X132.638 Y65.321 E7.63985
G1 X132.501 Y65.769 E7.65543
G1 X132.402 Y66.075 E7.66612
G1 X132.324 Y66.304 E7.67417
G1 X131.996 Y67.145 E7.70419
G1 X131.594 Y67.954 E7.73424
G1 X131.122 Y68.724 E7.76428
G1 X130.584 Y69.449 E7.79431
G1 X129.984 Y70.124 E7.82435
G1 X129.326 Y70.743 E7.85439
G1 X128.808 Y71.16 E7.87651
G1 X128.471 Y71.414 E7.89055
G1 X128.195 Y71.615 E7.9019
G1 X127.953 Y71.785 E7.91174
G1 X127.192 Y72.271 E7.94177
G1 X126.391 Y72.688 E7.97181
G1 X125.162 Y73.166 E8.01567
G1 X124.977 Y73.224 E8.02211
G1 X122.105 Y74.177 E8.12276
G1 X121.24 Y74.436 E8.15279
G1 X120.355 Y74.617 E8.18284
G1 X119.458 Y74.719 E8.21286
G1 X118.921 Y74.742 E8.23074
G1 X118.126 Y74.755 E8.25718
G1 X114.065 Y74.756 E8.39225
G1 X113.27 Y74.746 E8.4187
G1 X112.368 Y74.694 E8.44875
G1 X111.208 Y74.507 E8.48783
G1 X110.923 Y74.444 E8.49754
G1 X110.051 Y74.21 E8.52756
G1 X109.203 Y73.9 E8.55759
G1 X108.385 Y73.516 E8.58765
G1 X107.605 Y73.061 E8.61768
G1 X106.868 Y72.539 E8.64772
G1 X106.461 Y72.206 E8.66521
G1 X106.315 Y72.08 E8.67163
G1 X105.658 Y71.46 E8.70167
G1 X105.058 Y70.785 E8.73171
G1 X104.521 Y70.059 E8.76175
G1 X104.05 Y69.289 E8.79177
G1 X103.649 Y68.479 E8.82183
G1 X103.353 Y67.73 E8.84862
G1 X103.243 Y67.416 E8.85968
G1 X102.982 Y66.552 E8.8897
G1 X102.799 Y65.667 E8.91976
G1 X102.695 Y64.77 E8.94979
G1 X102.67 Y64.191 E8.96907
G1 X102.658 Y63.279 E8.9994
G1 X102.659 Y60.588 E9.08891
G1 X102.669 Y59.929 E9.11083
G1 X102.723 Y59.028 E9.14085
G1 X102.904 Y57.901 E9.17881
G1 X102.959 Y57.65 E9.18736
G1 X103.192 Y56.777 E9.21741
G1 X103.5 Y55.928 E9.24745
G1 X103.882 Y55.11 E9.27748
G1 F1500 E2.77748
G0 F6000 X121.657 Y62.285
G1 F1500 E9.27748
G1 F1200 X121.773 Y62.247 E9.28154
G1 X121.845 Y62.347 E9.28564
G1 X121.773 Y62.447 E9.28974
G1 X121.657 Y62.409 E9.2938
G1 X121.657 Y62.285 E9.29792
G0 F6000 X121.317 Y62.038
G1 F1200 X121.579 Y61.847 E9.3087
G1 X121.903 Y61.847 E9.31948
G1 X122.165 Y62.038 E9.33026
G1 X122.265 Y62.347 E9.34107
G1 X122.165 Y62.656 E9.35187
G1 X121.903 Y62.847 E9.36265
G1 X121.579 Y62.847 E9.37343
G1 X121.317 Y62.656 E9.38421
G1 X121.217 Y62.347 E9.39501
G1 X121.317 Y62.038 E9.40582
G0 F6000 X120.976 Y61.792
G1 F1200 X121.45 Y61.447 E9.42532
G1 X122.032 Y61.447 E9.44467
G1 X122.506 Y61.792 E9.46417
G1 X122.687 Y62.347 E9.48359
G1 X122.506 Y62.902 E9.503
G1 X122.032 Y63.247 E9.5225
G1 X121.45 Y63.247 E9.54186
G1 X120.976 Y62.902 E9.56136
G1 X120.795 Y62.347 E9.58078
G1 X120.976 Y61.792 E9.60019
G1 F1500 E3.10019
;MESH:Elevon  Mount.obj
G0 F6000 X117.458 Y62.756
;TYPE:WALL-INNER
G1 F1500 E9.60019
G1 F1200 X114.658 Y62.756 E9.69332
G1 X114.658 Y61.356 E9.73989
G1 X117.458 Y61.356 E9.83301
G1 X117.458 Y62.756 E9.87958
G0 F6000 X117.858 Y63.156
G1 F1200 X114.258 Y63.156 E9.99931
G1 X114.258 Y60.956 E10.07249
G1 X117.858 Y60.956 E10.19222
G1 X117.858 Y63.156 E10.2654
G0 F6000 X118.258 Y63.556
G1 F1200 X113.858 Y63.556 E10.41174
G1 X113.858 Y60.556 E10.51152
G1 X118.258 Y60.556 E10.65787
G1 X118.258 Y63.556 E10.75765
G0 F6000 X118.658 Y63.956
G1 F1200 X113.458 Y63.956 E10.9306
G1 X113.458 Y60.156 E11.05699
G1 X118.651 Y60.156 E11.22971
G1 X118.658 Y60.187 E11.23076
G1 X118.658 Y63.956 E11.35612
G0 F6000 X118.931 Y64.293
;TYPE:WALL-OUTER
G1 F1200 X118.751 Y64.356 E11.36246
G1 X113.38 Y64.356 E11.5411
G1 X113.225 Y64.318 E11.54641
G1 X113.119 Y64.228 E11.55104
G1 X113.058 Y64.056 E11.55711
G1 X113.058 Y60.081 E11.68932
G1 X113.096 Y59.922 E11.69475
G1 X113.185 Y59.818 E11.69931
G1 X113.36 Y59.756 E11.70548
G1 X118.733 Y59.756 E11.88419
G1 X118.892 Y59.794 E11.88963
G1 X118.997 Y59.884 E11.89422
G1 X119.058 Y60.142 E11.90304
G1 X119.058 Y64.034 E12.03249
G1 X119.02 Y64.189 E12.0378
G1 X118.931 Y64.293 E12.04235
G0 F6000 X118.618 Y63.93
G1 F1500 E5.54235
G0 F6000 X117.068 Y62.366
;TYPE:SKIN
G1 F1500 E12.04235
G1 F1200 X115.048 Y62.366 E12.10954
G1 X115.048 Y61.746 E12.13016
G1 X117.068 Y61.746 E12.19734
G1 X117.068 Y62.366 E12.21797
G0 F6000 X116.907 Y62.035
G1 F1200 X116.777 Y61.905 E12.22408
G0 F6000 X116.511 Y62.205
G1 F1200 X116.211 Y61.905 E12.23819
G0 F6000 X115.945 Y62.205
G1 F1200 X115.645 Y61.905 E12.2523
G0 F6000 X115.38 Y62.205
G1 F1200 X115.207 Y62.033 E12.26042
G1 F1500 E5.76042
;MESH:NONMESH
G0 F300 X115.207 Y62.033 Z0.4
G0 F6000 X121.007 Y61.802
;TIME_ELAPSED:27.025600
;LAYER:1
M106 S85
;TYPE:SUPPORT
G1 F1500 E12.26042
G1 F600 X121.472 Y61.463 E12.27956
G1 X122.044 Y61.463 E12.29858
G1 X122.509 Y61.802 E12.31772
G1 X122.687 Y62.346 E12.33676
G1 X122.509 Y62.89 E12.35579
G1 X122.044 Y63.229 E12.37493
G1 X121.472 Y63.229 E12.39396
G1 X121.007 Y62.89 E12.4131
G1 X120.829 Y62.346 E12.43214
G1 X121.007 Y61.802 E12.45117
G0 F7500 X121.346 Y62.051
G1 F600 X121.604 Y61.863 E12.46179
G1 X121.912 Y61.863 E12.47204
G1 X122.17 Y62.051 E12.48265
G1 X122.267 Y62.346 E12.49298
G1 X122.17 Y62.641 E12.50331
G1 X121.912 Y62.829 E12.51393
G1 X121.604 Y62.829 E12.52417
G1 X121.346 Y62.641 E12.53479
G1 X121.249 Y62.346 E12.54512
G1 X121.346 Y62.051 E12.55545
G1 F1500 E6.05545
;MESH:Elevon  Mount.obj
G0 F7500 X117.458 Y62.756
;TYPE:WALL-INNER
G1 F1500 E12.55545
G1 F660 X114.658 Y62.756 E12.64858
G1 X114.658 Y61.356 E12.69514
G1 X117.458 Y61.356 E12.78827
G1 X117.458 Y62.756 E12.83483
G0 F7500 X117.858 Y63.156
G1 F660 X114.258 Y63.156 E12.95457
G1 X114.258 Y60.956 E13.02774
G1 X117.858 Y60.956 E13.14748
G1 X117.858 Y63.156 E13.22065
G0 F7500 X118.258 Y63.556
G1 F660 X113.858 Y63.556 E13.36699
G1 X113.858 Y60.556 E13.46677
G1 X118.258 Y60.556 E13.61312
G1 X118.258 Y63.556 E13.7129
G0 F7500 X118.658 Y63.956
G1 F660 X113.458 Y63.956 E13.88585
G1 X113.458 Y60.156 E14.01224
G1 X118.658 Y60.156 E14.18519
G1 X118.658 Y63.956 E14.31158
G0 F7500 X118.931 Y64.293
;TYPE:WALL-OUTER
G1 F600 X118.751 Y64.356 E14.31793
G1 X113.38 Y64.356 E14.49657
G1 X113.225 Y64.318 E14.50187
G1 X113.119 Y64.228 E14.5065
G1 X113.058 Y64.056 E14.51257
G1 X113.058 Y60.081 E14.64478
G1 X113.096 Y59.922 E14.65021
G1 X113.185 Y59.818 E14.65477
G1 X113.36 Y59.756 E14.66094
G1 X118.733 Y59.756 E14.83965
G1 X118.892 Y59.794 E14.84509
G1 X118.997 Y59.884 E14.84969
G1 X119.058 Y60.056 E14.85576
G1 X119.058 Y64.034 E14.98806
G1 X119.02 Y64.189 E14.99337
G1 X118.931 Y64.293 E14.99793
G0 F7500 X118.618 Y63.93
G1 F1500 E8.49793
G0 F7500 X117.068 Y62.366
;TYPE:SKIN
G1 F1500 E14.99793
G1 F600 X115.048 Y62.366 E15.06511
G1 X115.048 Y61.746 E15.08573
G1 X117.068 Y61.746 E15.15292
G1 X117.068 Y62.366 E15.17354
G0 F7500 X116.85 Y61.905
G1 F600 X116.55 Y62.205 E15.18765
G0 F7500 X116.285 Y61.905
G1 F600 X115.985 Y62.205 E15.20176
G0 F7500 X115.719 Y61.905
G1 F600 X115.419 Y62.205 E15.21587
G1 F1500 E8.71587
;MESH:NONMESH
G0 F300 X115.419 Y62.205 Z0.6
G0 F7500 X120.935 Y61.853
;TIME_ELAPSED:38.292533
;LAYER:2
M106 S170
;TYPE:SUPPORT
G1 F1500 E15.21587
G1 F600 X121.474 Y61.482 E15.23764
G1 X122.038 Y61.482 E15.25639
G1 X122.495 Y61.815 E15.2752
G1 X122.67 Y62.349 E15.29389
G1 X122.495 Y62.883 E15.31258
G1 X122.049 Y63.208 E15.33094
G1 X121.343 Y63.12 E15.3546
G1 X120.935 Y62.838 E15.3711
G1 X120.935 Y61.853 E15.40386
G0 F9000 X121.335 Y62.063
G1 F600 X121.598 Y61.882 E15.41448
G1 X121.906 Y61.882 E15.42472
G1 X122.155 Y62.063 E15.43496
G1 X122.249 Y62.349 E15.44497
G1 X122.155 Y62.635 E15.45498
