;FLAVOR:Marlin
;TIME:10352
;Filament used: 7.47793m
;Layer height: 0.2
;MINX:80.368
;MINY:53.648
;MINZ:0.2
;MAXX:153.655
;MAXY:157.8
;MAXZ:26.4
;Generated with Cura_SteamEngine 4.8.0
M140 S60
M105
M190 S60
M104 S205
M105
M109 S205
M82 ;absolute extrusion mode
M201 X500.00 Y500.00 Z100.00 E5000.00 ;Setup machine max acceleration
M203 X500.00 Y500.00 Z10.00 E50.00 ;Setup machine max feedrate
M204 P500.00 R1000.00 T500.00 ;Setup Print/Retract/Travel acceleration
M205 X8.00 Y8.00 Z0.40 E5.00 ;Setup Jerk
M220 S100 ;Reset Feedrate
M221 S100 ;Reset Flowrate

G28 ;Home

G92 E0 ;Reset Extruder
G1 Z2.0 F3000 ;Move Z Axis up
G1 X10.1 Y20 Z0.28 F5000.0 ;Move to start position
G1 X10.1 Y200.0 Z0.28 F1500.0 E15 ;Draw the first line
G1 X10.4 Y200.0 Z0.28 F5000.0 ;Move to side a little
G1 X10.4 Y20 Z0.28 F1500.0 E30 ;Draw the second line
G92 E0 ;Reset Extruder
G1 Z2.0 F3000 ;Move Z Axis up

G92 E0
G92 E0
G1 F1500 E-6.5
;LAYER_COUNT:132
;LAYER:0
M107
G0 F6000 X98.168 Y64.425 Z0.2
;TYPE:SKIRT
G1 F1500 E0
G1 F1200 X98.719 Y63.666 E0.0312
G1 X99.333 Y62.956 E0.06242
G1 X100.005 Y62.302 E0.0936
G1 X100.72 Y61.715 E0.12437
G1 X101.283 Y61.291 E0.14781
G1 X101.554 Y61.093 E0.15898
G1 X102.017 Y60.766 E0.17783
G1 X102.535 Y60.422 E0.19851
G1 X103.011 Y60.125 E0.21717
G1 X105.211 Y58.707 E0.30423
G1 X106.219 Y58.027 E0.34467
G1 X107.018 Y57.536 E0.37586
G1 X107.488 Y57.288 E0.39354
G1 X108.667 Y56.704 E0.4373
G1 X110.989 Y55.515 E0.52406
G1 X112.006 Y54.968 E0.56247
G1 X112.85 Y54.559 E0.59366
G1 X113.726 Y54.224 E0.62486
G1 X114.627 Y53.964 E0.65605
G1 X115.547 Y53.783 E0.68723
G1 X116.479 Y53.68 E0.71842
G1 X117.024 Y53.657 E0.73656
G1 X117.534 Y53.648 E0.75353
G1 X117.93 Y53.648 E0.7667
G1 X118.093 Y53.651 E0.77212
G1 X119.03 Y53.708 E0.80335
G1 X119.957 Y53.845 E0.83451
G1 X120.87 Y54.06 E0.86571
G1 X121.414 Y54.228 E0.88465
G1 X122.111 Y54.465 E0.90913
G1 X123.671 Y55.015 E0.96415
G1 X125.068 Y55.472 E1.01304
G1 X126.121 Y55.807 E1.04979
G1 X126.796 Y56.046 E1.0736
G1 X130.421 Y57.465 E1.20308
G1 X131.279 Y57.844 E1.23428
G1 X132.101 Y58.294 E1.26545
G1 X132.734 Y58.707 E1.29059
G1 X133.349 Y59.139 E1.31558
G1 X133.613 Y59.33 E1.32642
G1 X134.041 Y59.65 E1.34419
G1 X134.767 Y60.243 E1.37537
G1 X135.441 Y60.896 E1.40659
G1 X136.056 Y61.604 E1.43778
G1 X136.609 Y62.362 E1.46898
G1 X137.095 Y63.164 E1.50017
G1 X137.511 Y64.004 E1.53135
G1 X137.85 Y64.866 E1.56216
G1 X138.083 Y65.54 E1.58588
G1 X138.193 Y65.874 E1.59757
G1 X138.359 Y66.409 E1.61621
G1 X138.598 Y67.316 E1.6474
G1 X138.76 Y68.24 E1.6786
G1 X138.842 Y69.174 E1.70979
G1 X138.844 Y70.112 E1.74099
G1 X138.77 Y71.019 E1.77125
G1 X138.666 Y71.857 E1.79934
G1 X138.382 Y74.436 E1.88563
G1 X138.177 Y76.953 E1.96963
G1 X138.043 Y79.469 E2.05343
G1 X137.981 Y81.997 E2.13754
G1 X137.989 Y84.518 E2.22139
G1 X138.068 Y87.005 E2.30414
G1 X138.22 Y89.533 E2.38838
G1 X138.442 Y92.042 E2.47215
G1 X138.733 Y94.534 E2.5556
G1 X139.095 Y97.005 E2.63866
G1 X139.538 Y99.539 E2.72422
G1 X140.024 Y101.924 E2.80518
G1 X140.611 Y104.432 E2.89085
G1 X141.253 Y106.865 E2.97454
G1 X141.959 Y109.266 E3.05778
G1 X142.741 Y111.666 E3.14174
G1 X143.587 Y114.036 E3.22543
G1 X144.495 Y116.372 E3.30879
G1 X145.49 Y118.728 E3.39385
G1 X146.521 Y120.989 E3.4765
G1 X147.629 Y123.248 E3.56019
G1 X148.801 Y125.475 E3.64389
G1 X150.028 Y127.656 E3.72712
G1 X151.513 Y130.123 E3.8229
G1 X152.002 Y130.908 E3.85366
G1 X152.464 Y131.724 E3.88484
G1 X152.854 Y132.577 E3.91604
G1 X153.17 Y133.46 E3.94723
G1 X153.409 Y134.367 E3.97843
G1 X153.571 Y135.291 E4.00963
G1 X153.653 Y136.225 E4.04082
G1 X153.655 Y137.163 E4.07201
G1 X153.577 Y138.098 E4.10322
G1 X153.436 Y138.95 E4.13194
G1 X153.351 Y139.355 E4.14571
G1 X152.869 Y141.508 E4.21909
G1 X152.397 Y143.943 E4.30158
G1 X151.979 Y146.472 E4.38684
G1 X151.801 Y147.393 E4.41804
G1 X151.546 Y148.295 E4.44922
G1 X151.214 Y149.172 E4.48041
G1 X150.809 Y150.018 E4.5116
G1 X150.333 Y150.826 E4.54279
G1 X149.79 Y151.591 E4.57399
G1 X149.184 Y152.307 E4.60519
G1 X148.519 Y152.968 E4.63638
G1 X147.571 Y153.743 E4.6771
G1 X146.797 Y154.306 E4.70894
G1 X146.036 Y154.844 E4.73994
G1 X145.325 Y155.372 E4.76939
G1 X144.852 Y155.713 E4.78879
G1 X144.068 Y156.228 E4.81998
G1 X143.244 Y156.675 E4.85116
G1 X142.384 Y157.05 E4.88237
G1 X141.496 Y157.351 E4.91355
G1 X140.585 Y157.575 E4.94476
G1 X139.658 Y157.72 E4.97596
G1 X138.754 Y157.785 E5.00611
G1 X138.426 Y157.795 E5.01702
G1 X138.091 Y157.8 E5.02817
G1 X97.129 Y157.799 E6.39057
G1 X95.503 Y157.776 E6.44465
G1 X94.666 Y157.752 E6.4725
G1 X94.286 Y157.75 E6.48514
G1 X93.704 Y157.738 E6.5045
G1 X92.768 Y157.678 E6.5357
G1 X91.841 Y157.537 E6.56689
G1 X90.929 Y157.319 E6.59807
G1 X90.039 Y157.023 E6.62927
G1 X89.177 Y156.653 E6.66047
G1 X88.54 Y156.32 E6.68438
G1 X88.207 Y156.132 E6.6971
G1 X87.411 Y155.636 E6.72829
G1 X86.66 Y155.075 E6.75947
G1 X85.959 Y154.451 E6.79068
G1 X85.314 Y153.771 E6.82186
G1 X84.729 Y153.037 E6.85307
G1 X84.209 Y152.257 E6.88425
G1 X83.758 Y151.435 E6.91544
G1 X83.378 Y150.577 E6.94665
G1 X83.072 Y149.691 E6.97782
G1 X82.843 Y148.781 E7.00904
G1 X82.744 Y148.23 E7.02765
G1 X82.678 Y147.802 E7.04206
G1 X82.236 Y145.157 E7.13125
G1 X81.754 Y142.698 E7.21459
G1 X81.198 Y140.237 E7.29851
G1 X80.881 Y138.996 E7.34111
G1 X80.672 Y138.129 E7.37077
G1 X80.492 Y137.209 E7.40195
G1 X80.39 Y136.276 E7.43317
G1 X80.368 Y135.339 E7.46434
G1 X80.426 Y134.403 E7.49553
G1 X80.564 Y133.475 E7.52674
G1 X80.858 Y132.297 E7.56712
G1 X80.967 Y131.945 E7.57938
G1 X81.07 Y131.631 E7.59037
G1 X81.154 Y131.386 E7.59898
G1 X81.387 Y130.767 E7.62098
G1 X81.779 Y129.915 E7.65218
G1 X82.227 Y129.123 E7.68244
G1 X82.971 Y127.926 E7.72932
G1 X84.297 Y125.72 E7.81492
G1 X85.537 Y123.515 E7.89906
G1 X86.708 Y121.292 E7.98263
G1 X87.824 Y119.016 E8.06694
G1 X88.858 Y116.748 E8.14984
G1 X89.843 Y114.416 E8.23404
G1 X90.757 Y112.07 E8.31778
G1 X91.597 Y109.716 E8.40091
G1 X92.384 Y107.296 E8.48555
G1 X93.097 Y104.877 E8.56943
G1 X93.731 Y102.475 E8.65206
G1 X94.317 Y99.976 E8.73743
G1 X94.811 Y97.547 E8.81987
G1 X95.246 Y95.061 E8.90381
G1 X95.611 Y92.565 E8.98771
G1 X95.902 Y90.079 E9.07096
G1 X96.124 Y87.57 E9.15474
G1 X96.276 Y85.04 E9.23904
G1 X96.355 Y82.554 E9.32176
G1 X96.364 Y80.029 E9.40575
G1 X96.302 Y77.506 E9.48969
G1 X96.169 Y75.002 E9.57309
G1 X96.078 Y73.921 E9.60917
G1 X95.976 Y72.508 E9.65629
G1 X95.948 Y71.571 E9.68747
G1 X96 Y70.634 E9.71868
G1 X96.132 Y69.706 E9.74986
G1 X96.43 Y68.491 E9.79146
G1 X96.648 Y67.78 E9.8162
G1 X96.757 Y67.446 E9.82788
G1 X96.929 Y66.943 E9.84557
G1 X97.27 Y66.069 E9.87677
G1 X97.684 Y65.228 E9.90795
G1 X98.168 Y64.425 E9.93913
G0 F6000 X98.53 Y64.603
G1 F1200 X99.075 Y63.861 E9.96975
G1 X99.682 Y63.17 E10.00034
G1 X100.347 Y62.533 E10.03097
G1 X100.96 Y62.035 E10.05724
G1 X101.523 Y61.611 E10.08068
G1 X101.785 Y61.42 E10.09146
G1 X102.248 Y61.093 E10.11032
G1 X102.747 Y60.761 E10.13025
G1 X103.201 Y60.477 E10.14806
G1 X105.45 Y59.029 E10.23703
G1 X106.442 Y58.359 E10.27684
G1 X107.227 Y57.877 E10.30748
G1 X107.666 Y57.647 E10.32396
G1 X108.787 Y57.091 E10.36558
G1 X111.183 Y55.865 E10.4551
G1 X112.196 Y55.32 E10.49336
G1 X113.024 Y54.92 E10.52394
G1 X113.885 Y54.593 E10.55458
G1 X114.771 Y54.341 E10.58521
G1 X115.675 Y54.168 E10.61583
G1 X117.031 Y54.057 E10.66108
G1 X117.541 Y54.048 E10.67804
G1 X117.923 Y54.048 E10.69075
G1 X118.086 Y54.051 E10.69617
G1 X119.005 Y54.108 E10.7268
G1 X119.915 Y54.244 E10.7574
G1 X120.811 Y54.459 E10.78805
G1 X121.286 Y54.607 E10.80459
G1 X121.978 Y54.842 E10.8289
G1 X123.541 Y55.393 E10.88402
G1 X124.947 Y55.853 E10.93323
G1 X126 Y56.188 E10.96998
G1 X126.65 Y56.418 E10.99291
G1 X130.275 Y57.837 E11.12239
G1 X131.117 Y58.21 E11.15302
G1 X131.923 Y58.654 E11.18362
G1 X132.504 Y59.034 E11.20671
G1 X133.119 Y59.466 E11.23171
G1 X133.373 Y59.65 E11.24214
G1 X133.801 Y59.97 E11.25992
G1 X134.514 Y60.553 E11.29055
G1 X135.173 Y61.196 E11.32117
G1 X135.775 Y61.893 E11.35181
G1 X136.313 Y62.64 E11.38242
G1 X136.785 Y63.43 E11.41303
G1 X137.186 Y64.259 E11.44366
G1 X137.472 Y64.997 E11.46999
G1 X137.705 Y65.671 E11.4937
G1 X137.811 Y65.993 E11.50498
G1 X137.977 Y66.528 E11.52361
G1 X138.211 Y67.418 E11.55422
G1 X138.367 Y68.325 E11.58483
G1 X138.444 Y69.243 E11.61547
G1 X138.441 Y70.163 E11.64607
G1 X138.373 Y70.97 E11.673
G1 X138.266 Y71.833 E11.70193
G1 X137.983 Y74.399 E11.78779
G1 X137.777 Y76.933 E11.87235
G1 X137.644 Y79.439 E11.95582
G1 X137.58 Y81.988 E12.04062
G1 X137.588 Y84.498 E12.12411
G1 X137.669 Y87.042 E12.20876
G1 X137.821 Y89.559 E12.29263
G1 X138.044 Y92.084 E12.37694
G1 X138.335 Y94.571 E12.46022
G1 X138.704 Y97.095 E12.54506
G1 X139.138 Y99.575 E12.6288
G1 X139.645 Y102.063 E12.71325
G1 X140.222 Y104.529 E12.79749
G1 X140.857 Y106.932 E12.88016
G1 X141.582 Y109.398 E12.96565
G1 X142.367 Y111.808 E13.04995
G1 X143.213 Y114.179 E13.13368
G1 X144.13 Y116.537 E13.21783
G1 X145.103 Y118.842 E13.30104
G1 X146.171 Y121.181 E13.38656
G1 X147.281 Y123.446 E13.47046
G1 X148.447 Y125.664 E13.5538
G1 X149.679 Y127.853 E13.63735
G1 X151.144 Y130.286 E13.73181
G1 X151.663 Y131.119 E13.76445
G1 X152.115 Y131.921 E13.79507
G1 X152.496 Y132.759 E13.82569
G1 X152.803 Y133.627 E13.85631
G1 X153.033 Y134.519 E13.88695
G1 X153.185 Y135.427 E13.91757
G1 X153.257 Y136.345 E13.94819
G1 X153.25 Y137.265 E13.97879
G1 X153.163 Y138.182 E14.00943
G1 X153.044 Y138.869 E14.03262
G1 X152.96 Y139.267 E14.04615
G1 X152.488 Y141.375 E14.118
G1 X152.002 Y143.879 E14.20284
G1 X151.584 Y146.413 E14.28826
G1 X151.408 Y147.317 E14.31889
G1 X151.155 Y148.202 E14.3495
G1 X150.826 Y149.062 E14.38013
G1 X150.424 Y149.89 E14.41074
G1 X149.951 Y150.68 E14.44137
G1 X149.412 Y151.426 E14.47198
G1 X148.809 Y152.122 E14.50261
G1 X148.149 Y152.764 E14.53323
G1 X147.335 Y153.419 E14.56798
G1 X146.439 Y154.07 E14.60482
G1 X145.799 Y154.522 E14.63088
G1 X145.091 Y155.047 E14.66019
G1 X144.618 Y155.388 E14.67959
G1 X143.848 Y155.894 E14.71023
G1 X143.038 Y156.331 E14.74084
G1 X142.193 Y156.696 E14.77146
G1 X141.319 Y156.986 E14.80209
G1 X140.423 Y157.199 E14.83272
G1 X139.513 Y157.333 E14.86331
G1 X138.742 Y157.385 E14.88901
G1 X138.414 Y157.395 E14.89993
G1 X138.091 Y157.4 E14.91067
G1 X97.135 Y157.399 E16.27287
G1 X95.509 Y157.376 E16.32696
G1 X94.68 Y157.352 E16.35454
G1 X94.289 Y157.35 E16.36755
G1 X93.713 Y157.338 E16.38671
G1 X92.794 Y157.278 E16.41734
G1 X91.884 Y157.138 E16.44797
G1 X90.99 Y156.92 E16.47857
G1 X90.118 Y156.625 E16.50919
G1 X89.275 Y156.255 E16.53981
G1 X88.737 Y155.972 E16.56003
G1 X88.404 Y155.784 E16.57275
G1 X87.622 Y155.297 E16.60339
G1 X86.886 Y154.744 E16.63401
G1 X86.201 Y154.129 E16.66462
G1 X85.572 Y153.457 E16.69524
G1 X85.003 Y152.733 E16.72587
G1 X84.499 Y151.962 E16.7565
G1 X84.064 Y151.151 E16.78711
G1 X83.701 Y150.305 E16.81773
G1 X83.413 Y149.43 E16.84837
G1 X83.139 Y148.169 E16.89129
G1 X83.063 Y147.674 E16.90795
G1 X82.63 Y145.086 E16.99522
G1 X82.144 Y142.605 E17.07931
G1 X81.591 Y140.155 E17.16284
G1 X81.27 Y138.902 E17.20586
G1 X81.061 Y138.035 E17.23553
G1 X80.884 Y137.132 E17.26613
G1 X80.787 Y136.216 E17.29677
G1 X80.769 Y135.296 E17.32737
G1 X80.831 Y134.377 E17.35801
G1 X80.973 Y133.467 E17.38864
G1 X81.24 Y132.416 E17.42471
G1 X81.349 Y132.064 E17.43696
G1 X81.448 Y131.761 E17.44757
G1 X81.532 Y131.516 E17.45618
G1 X81.757 Y130.918 E17.47743
G1 X82.142 Y130.082 E17.50804
G1 X82.567 Y129.334 E17.53666
G1 X83.311 Y128.137 E17.58353
G1 X84.646 Y125.916 E17.66972
G1 X85.89 Y123.704 E17.75413
G1 X87.063 Y121.477 E17.83785
G1 X88.183 Y119.194 E17.92243
G1 X89.233 Y116.891 E18.00661
G1 X90.208 Y114.581 E18.09
G1 X91.131 Y112.213 E18.17454
G1 X91.987 Y109.814 E18.25925
G1 X92.763 Y107.428 E18.3427
G1 X93.475 Y105.011 E18.42651
G1 X94.13 Y102.53 E18.51185
G1 X94.702 Y100.089 E18.59524
G1 X95.205 Y97.617 E18.67915
G1 X95.643 Y95.116 E18.7636
G1 X96.005 Y92.637 E18.84692
G1 X96.3 Y90.121 E18.93118
G1 X96.523 Y87.596 E19.01549
G1 X96.675 Y85.077 E19.09942
G1 X96.756 Y82.533 E19.18408
G1 X96.764 Y80.021 E19.26763
G1 X96.701 Y77.476 E19.3523
G1 X96.569 Y74.975 E19.4356
G1 X96.477 Y73.892 E19.47175
G1 X96.375 Y72.479 E19.51887
G1 X96.348 Y71.559 E19.54948
G1 X96.402 Y70.64 E19.5801
G1 X96.535 Y69.729 E19.61072
G1 X96.813 Y68.609 E19.6491
G1 X97.031 Y67.898 E19.67384
G1 X97.135 Y67.575 E19.68512
G1 X97.307 Y67.072 E19.70281
G1 X97.643 Y66.215 E19.73342
G1 X98.051 Y65.39 E19.76403
G1 X98.53 Y64.603 E19.79468
G0 F6000 X98.891 Y64.783
G1 F1200 X99.43 Y64.059 E19.8247
G1 X100.031 Y63.384 E19.85476
G1 X100.689 Y62.766 E19.88478
G1 X101.201 Y62.354 E19.90664
G1 X101.764 Y61.93 E19.93008
G1 X102.016 Y61.746 E19.94046
G1 X102.479 Y61.419 E19.95931
G1 X102.958 Y61.101 E19.97843
G1 X103.406 Y60.821 E19.99601
G1 X105.672 Y59.361 E20.08566
G1 X106.666 Y58.69 E20.12555
G1 X107.436 Y58.219 E20.15557
G1 X107.844 Y58.005 E20.1709
G1 X109.029 Y57.418 E20.21488
G1 X111.356 Y56.227 E20.30182
G1 X112.385 Y55.673 E20.34069
G1 X113.199 Y55.28 E20.37076
G1 X114.043 Y54.962 E20.40076
G1 X114.913 Y54.719 E20.4308
G1 X115.801 Y54.554 E20.46084
G1 X117.038 Y54.457 E20.50211
G1 X117.548 Y54.448 E20.51908
G1 X117.916 Y54.448 E20.53131
G1 X118.079 Y54.451 E20.53674
G1 X118.98 Y54.507 E20.56676
G1 X119.873 Y54.643 E20.59681
G1 X121.158 Y54.986 E20.64104
G1 X121.845 Y55.22 E20.66518
G1 X123.371 Y55.758 E20.719
G1 X124.882 Y56.252 E20.77187
G1 X125.878 Y56.569 E20.80664
G1 X126.504 Y56.791 E20.82873
G1 X130.129 Y58.21 E20.9582
G1 X130.955 Y58.576 E20.98825
G1 X131.745 Y59.014 E21.0183
G1 X132.274 Y59.361 E21.03934
G1 X132.889 Y59.793 E21.06434
G1 X133.134 Y59.971 E21.07441
G1 X133.562 Y60.291 E21.09218
G1 X134.26 Y60.863 E21.1222
G1 X134.906 Y61.495 E21.15226
G1 X135.493 Y62.181 E21.18228
G1 X136.016 Y62.917 E21.21232
G1 X136.473 Y63.696 E21.24235
G1 X136.859 Y64.513 E21.27241
G1 X137.094 Y65.127 E21.29427
G1 X137.327 Y65.801 E21.31799
G1 X137.429 Y66.111 E21.32885
G1 X137.595 Y66.646 E21.34748
G1 X137.824 Y67.52 E21.37753
G1 X137.975 Y68.41 E21.40755
G1 X138.047 Y69.31 E21.43758
G1 X138.038 Y70.214 E21.46765
G1 X137.976 Y70.921 E21.49126
G1 X137.874 Y71.743 E21.51881
G1 X137.582 Y74.394 E21.60751
G1 X137.379 Y76.878 E21.69041
G1 X137.243 Y79.443 E21.77584
G1 X137.18 Y81.979 E21.86021
G1 X137.189 Y84.512 E21.94446
G1 X137.269 Y87.043 E22.02868
G1 X137.424 Y89.618 E22.11448
G1 X137.643 Y92.098 E22.19729
G1 X137.941 Y94.639 E22.28238
G1 X138.308 Y97.15 E22.36679
G1 X138.745 Y99.652 E22.45126
G1 X139.25 Y102.128 E22.53531
G1 X139.832 Y104.617 E22.62033
G1 X140.482 Y107.076 E22.70492
G1 X141.203 Y109.529 E22.78996
G1 X141.975 Y111.897 E22.8728
G1 X142.836 Y114.31 E22.95802
G1 X143.76 Y116.688 E23.04287
G1 X144.748 Y119.027 E23.12732
G1 X145.805 Y121.344 E23.21202
G1 X146.925 Y123.629 E23.29666
G1 X148.088 Y125.84 E23.37975
G1 X149.346 Y128.075 E23.46506
G1 X150.823 Y130.528 E23.56029
G1 X151.323 Y131.331 E23.59175
G1 X151.766 Y132.118 E23.62179
G1 X152.138 Y132.941 E23.65183
G1 X152.435 Y133.794 E23.68187
G1 X152.656 Y134.669 E23.71189
G1 X152.798 Y135.561 E23.74193
G1 X152.861 Y136.462 E23.77197
G1 X152.844 Y137.365 E23.80201
G1 X152.747 Y138.263 E23.83205
G1 X152.652 Y138.788 E23.8498
G1 X152.57 Y139.18 E23.86312
G1 X152.09 Y141.324 E23.93619
G1 X151.609 Y143.803 E24.02018
G1 X151.188 Y146.354 E24.10618
G1 X151.015 Y147.24 E24.1362
G1 X150.765 Y148.108 E24.16624
G1 X150.438 Y148.95 E24.19629
G1 X150.039 Y149.76 E24.22632
G1 X149.569 Y150.531 E24.25635
G1 X149.033 Y151.258 E24.28639
G1 X148.435 Y151.935 E24.31644
G1 X147.78 Y152.556 E24.34646
G1 X147.1 Y153.096 E24.37534
G1 X146.209 Y153.743 E24.41196
G1 X145.577 Y154.189 E24.43769
