;FLAVOR:Marlin
;TIME:2520
;Filament used: 1.61284m
;Layer height: 0.16
;MINX:89
;MINY:89.5
;MINZ:0.2
;MAXX:146
;MAXY:145.5
;MAXZ:16.44
;Generated with Cura_SteamEngine 4.8.0
M140 S60
M105
M190 S60
M104 S205
M105
M109 S205
M82 ;absolute extrusion mode
M201 X500.00 Y500.00 Z100.00 E5000.00 ;Setup machine max acceleration
M203 X500.00 Y500.00 Z10.00 E50.00 ;Setup machine max feedrate
M204 P500.00 R1000.00 T500.00 ;Setup Print/Retract/Travel acceleration
M205 X8.00 Y8.00 Z0.40 E5.00 ;Setup Jerk
M220 S100 ;Reset Feedrate
M221 S100 ;Reset Flowrate

G28 ;Home

G92 E0 ;Reset Extruder
G1 Z2.0 F3000 ;Move Z Axis up
G1 X10.1 Y20 Z0.28 F5000.0 ;Move to start position
G1 X10.1 Y200.0 Z0.28 F1500.0 E15 ;Draw the first line
G1 X10.4 Y200.0 Z0.28 F5000.0 ;Move to side a little
G1 X10.4 Y20 Z0.28 F1500.0 E30 ;Draw the second line
G92 E0 ;Reset Extruder
G1 Z2.0 F3000 ;Move Z Axis up

G92 E0
G92 E0
G1 F1500 E-6.5
;LAYER_COUNT:95
;LAYER:0
M107
G0 F6000 X92.198 Y92.764 Z0.2
;TYPE:SKIRT
G1 F1500 E0
G1 F1200 X92.886 Y92.127 E0.03119
G1 X93.626 Y91.551 E0.06237
G1 X94.412 Y91.039 E0.09357
G1 X95.239 Y90.597 E0.12476
G1 X96.101 Y90.227 E0.15596
G1 X96.991 Y89.931 E0.18716
G1 X97.903 Y89.713 E0.21835
G1 X98.83 Y89.572 E0.24953
G1 X99.701 Y89.513 E0.27857
G1 X100.022 Y89.504 E0.28925
G1 X100.33 Y89.5 E0.29949
G1 X134.293 Y89.5 E1.42911
G1 X135.149 Y89.511 E1.45758
G1 X136.085 Y89.565 E1.48876
G1 X137.013 Y89.697 E1.51994
G1 X137.927 Y89.909 E1.55115
G1 X138.819 Y90.198 E1.58233
G1 X139.684 Y90.561 E1.61353
G1 X140.514 Y90.997 E1.64472
G1 X141.305 Y91.502 E1.67593
G1 X142.049 Y92.073 E1.70712
G1 X142.742 Y92.705 E1.73832
G1 X143.379 Y93.393 E1.7695
G1 X143.954 Y94.134 E1.8007
G1 X144.465 Y94.92 E1.83188
G1 X144.907 Y95.748 E1.8631
G1 X145.276 Y96.61 E1.89429
G1 X145.571 Y97.5 E1.92547
G1 X145.789 Y98.412 E1.95666
G1 X145.929 Y99.34 E1.98787
G1 X145.987 Y100.201 E2.01658
G1 X145.996 Y100.521 E2.02722
G1 X146 Y100.83 E2.0375
G1 X145.999 Y133.9 E3.13741
G1 X145.99 Y134.627 E3.1616
G1 X145.939 Y135.564 E3.19281
G1 X145.807 Y136.492 E3.22398
G1 X145.598 Y137.406 E3.25517
G1 X145.311 Y138.299 E3.28636
G1 X144.949 Y139.165 E3.31758
G1 X144.515 Y139.996 E3.34876
G1 X144.011 Y140.787 E3.37996
G1 X143.442 Y141.532 E3.41114
G1 X142.811 Y142.227 E3.44236
G1 X142.124 Y142.865 E3.47354
G1 X141.385 Y143.442 E3.50473
G1 X140.599 Y143.954 E3.53593
G1 X139.773 Y144.397 E3.5671
G1 X138.911 Y144.769 E3.59833
G1 X138.022 Y145.065 E3.62949
G1 X137.11 Y145.285 E3.6607
G1 X136.183 Y145.426 E3.69188
G1 X135.299 Y145.487 E3.72135
G1 X134.978 Y145.496 E3.73204
G1 X134.67 Y145.5 E3.74228
G1 X100.565 Y145.499 E4.87662
G1 X99.867 Y145.49 E4.89983
G1 X98.931 Y145.438 E4.93101
G1 X98.002 Y145.306 E4.96222
G1 X97.088 Y145.096 E4.99341
G1 X96.195 Y144.809 E5.02461
G1 X95.33 Y144.446 E5.05581
G1 X94.499 Y144.012 E5.08699
G1 X93.708 Y143.508 E5.11819
G1 X92.963 Y142.938 E5.14939
G1 X92.269 Y142.307 E5.18059
G1 X91.632 Y141.62 E5.21175
G1 X91.055 Y140.88 E5.24296
G1 X90.543 Y140.094 E5.27416
G1 X90.1 Y139.267 E5.30536
G1 X89.729 Y138.406 E5.33654
G1 X89.433 Y137.516 E5.36774
G1 X89.214 Y136.604 E5.39893
G1 X89.073 Y135.677 E5.43012
G1 X89.013 Y134.788 E5.45976
G1 X89.004 Y134.455 E5.47084
G1 X89 Y134.158 E5.48072
G1 X89.001 Y101.025 E6.58272
G1 X89.01 Y100.36 E6.60484
G1 X89.063 Y99.424 E6.63603
G1 X89.195 Y98.495 E6.66723
G1 X89.406 Y97.581 E6.69843
G1 X89.694 Y96.689 E6.72961
G1 X90.057 Y95.824 E6.76081
G1 X90.492 Y94.993 E6.79201
G1 X90.996 Y94.203 E6.82317
G1 X91.566 Y93.458 E6.85437
G1 X92.198 Y92.764 E6.88559
G0 F6000 X92.589 Y92.939
G1 F1200 X93.274 Y92.323 E6.91623
G1 X94.01 Y91.77 E6.94685
G1 X94.791 Y91.282 E6.97748
G1 X95.611 Y90.864 E7.0081
G1 X96.465 Y90.519 E7.03873
G1 X97.345 Y90.249 E7.06935
G1 X98.245 Y90.057 E7.09995
G1 X99.159 Y89.943 E7.13059
G1 X99.712 Y89.913 E7.14901
G1 X100.033 Y89.904 E7.15969
G1 X100.33 Y89.9 E7.16957
G1 X134.293 Y89.9 E8.29918
G1 X135.143 Y89.911 E8.32746
G1 X136.062 Y89.964 E8.35807
G1 X136.973 Y90.097 E8.38869
G1 X137.869 Y90.308 E8.41931
G1 X138.743 Y90.596 E8.44992
G1 X139.59 Y90.959 E8.48057
G1 X140.401 Y91.394 E8.51118
G1 X141.171 Y91.898 E8.54178
G1 X141.895 Y92.467 E8.57241
G1 X142.567 Y93.097 E8.60305
G1 X143.182 Y93.782 E8.63367
G1 X143.735 Y94.518 E8.66429
G1 X144.222 Y95.299 E8.6949
G1 X144.639 Y96.12 E8.72553
G1 X144.984 Y96.974 E8.75616
G1 X145.253 Y97.854 E8.78677
G1 X145.445 Y98.755 E8.81741
G1 X145.558 Y99.668 E8.848
G1 X145.587 Y100.212 E8.86612
G1 X145.596 Y100.532 E8.87677
G1 X145.6 Y100.83 E8.88668
G1 X145.599 Y133.895 E9.98643
G1 X145.59 Y134.622 E10.01061
G1 X145.539 Y135.541 E10.04123
G1 X145.408 Y136.453 E10.07187
G1 X145.198 Y137.349 E10.10248
G1 X144.912 Y138.224 E10.1331
G1 X144.551 Y139.071 E10.16372
G1 X144.117 Y139.883 E10.19434
G1 X143.615 Y140.655 E10.22497
G1 X143.047 Y141.38 E10.2556
G1 X142.419 Y142.053 E10.28622
G1 X141.735 Y142.669 E10.31683
G1 X141 Y143.223 E10.34745
G1 X140.22 Y143.712 E10.37807
G1 X139.4 Y144.131 E10.40869
G1 X138.547 Y144.477 E10.43931
G1 X137.667 Y144.748 E10.46994
G1 X136.767 Y144.941 E10.50055
G1 X135.853 Y145.056 E10.53119
G1 X135.288 Y145.087 E10.55001
G1 X134.967 Y145.096 E10.56069
G1 X134.67 Y145.1 E10.57057
G1 X100.57 Y145.099 E11.70474
G1 X99.872 Y145.09 E11.72796
G1 X98.953 Y145.038 E11.75857
G1 X98.042 Y144.907 E11.78918
G1 X97.146 Y144.697 E11.81979
G1 X96.271 Y144.41 E11.85042
G1 X95.424 Y144.048 E11.88106
G1 X94.612 Y143.614 E11.91168
G1 X93.841 Y143.112 E11.94228
G1 X93.116 Y142.544 E11.97291
G1 X92.443 Y141.915 E12.00355
G1 X91.828 Y141.231 E12.03415
G1 X91.274 Y140.496 E12.06476
G1 X90.786 Y139.715 E12.09539
G1 X90.367 Y138.895 E12.12602
G1 X90.021 Y138.042 E12.15663
G1 X89.751 Y137.162 E12.18725
G1 X89.558 Y136.261 E12.2179
G1 X89.444 Y135.348 E12.2485
G1 X89.413 Y134.777 E12.26752
G1 X89.404 Y134.444 E12.2786
G1 X89.4 Y134.158 E12.28811
G1 X89.401 Y101.031 E13.38992
G1 X89.41 Y100.366 E13.41204
G1 X89.462 Y99.446 E13.44269
G1 X89.594 Y98.535 E13.4733
G1 X89.805 Y97.639 E13.50392
G1 X90.092 Y96.764 E13.53455
G1 X90.455 Y95.918 E13.56517
G1 X90.889 Y95.106 E13.59579
G1 X91.392 Y94.335 E13.62641
G1 X91.961 Y93.611 E13.65703
G1 X92.589 Y92.939 E13.68763
G0 F6000 X92.981 Y93.117
G1 F1200 X93.662 Y92.524 E13.71766
G1 X94.394 Y91.994 E13.74772
G1 X95.169 Y91.531 E13.77774
G1 X95.982 Y91.138 E13.80778
G1 X96.827 Y90.818 E13.83783
G1 X97.696 Y90.575 E13.86784
G1 X98.584 Y90.409 E13.89789
G1 X99.723 Y90.313 E13.93591
G1 X100.044 Y90.304 E13.94659
G1 X100.33 Y90.3 E13.9561
G1 X134.293 Y90.3 E15.08571
G1 X135.137 Y90.311 E15.11379
G1 X136.039 Y90.364 E15.14384
G1 X136.932 Y90.496 E15.17387
G1 X137.81 Y90.707 E15.2039
G1 X138.666 Y90.995 E15.23394
G1 X139.493 Y91.357 E15.26396
G1 X140.285 Y91.792 E15.29402
G1 X141.036 Y92.294 E15.32406
G1 X141.739 Y92.861 E15.3541
G1 X142.389 Y93.488 E15.38414
G1 X142.981 Y94.17 E15.41418
G1 X143.511 Y94.901 E15.44421
G1 X143.973 Y95.677 E15.47425
G1 X144.366 Y96.49 E15.50428
G1 X144.684 Y97.335 E15.53431
G1 X144.927 Y98.205 E15.56435
G1 X145.092 Y99.093 E15.59439
G1 X145.187 Y100.223 E15.63211
G1 X145.196 Y100.543 E15.64276
G1 X145.2 Y100.83 E15.6523
G1 X145.199 Y133.89 E16.75188
G1 X145.19 Y134.617 E16.77607
G1 X145.139 Y135.519 E16.80611
G1 X145.008 Y136.413 E16.83617
G1 X144.799 Y137.291 E16.86619
G1 X144.513 Y138.148 E16.89623
G1 X144.152 Y138.976 E16.92628
G1 X143.72 Y139.768 E16.95628
G1 X143.219 Y140.52 E16.98634
G1 X142.653 Y141.224 E17.01638
G1 X142.028 Y141.875 E17.0464
G1 X141.347 Y142.469 E17.07645
G1 X140.616 Y143 E17.1065
G1 X139.842 Y143.464 E17.13652
G1 X139.029 Y143.858 E17.16657
G1 X138.185 Y144.178 E17.19659
G1 X137.315 Y144.423 E17.22665
G1 X136.428 Y144.589 E17.25666
G1 X135.277 Y144.687 E17.29509
G1 X134.956 Y144.696 E17.30577
G1 X134.67 Y144.7 E17.31528
G1 X100.575 Y144.699 E18.44928
G1 X99.877 Y144.69 E18.4725
G1 X98.976 Y144.639 E18.50252
G1 X98.082 Y144.507 E18.53257
G1 X97.204 Y144.298 E18.56259
G1 X96.347 Y144.011 E18.59265
G1 X95.52 Y143.65 E18.62266
G1 X94.727 Y143.217 E18.65272
G1 X93.976 Y142.716 E18.68274
G1 X93.272 Y142.15 E18.71279
G1 X92.621 Y141.524 E18.74282
G1 X92.028 Y140.843 E18.77286
G1 X91.498 Y140.112 E18.80289
G1 X91.034 Y139.337 E18.83293
G1 X90.64 Y138.524 E18.86298
G1 X90.32 Y137.68 E18.893
G1 X90.076 Y136.81 E18.92306
G1 X89.91 Y135.922 E18.9531
G1 X89.813 Y134.767 E18.99165
G1 X89.804 Y134.434 E19.00273
G1 X89.8 Y134.158 E19.01191
G1 X89.801 Y101.036 E20.11356
G1 X89.81 Y100.371 E20.13568
G1 X89.862 Y99.469 E20.16573
G1 X89.994 Y98.576 E20.19575
G1 X90.204 Y97.698 E20.22578
G1 X90.491 Y96.841 E20.25584
G1 X90.853 Y96.014 E20.28586
G1 X91.286 Y95.222 E20.31588
G1 X91.788 Y94.471 E20.34593
G1 X92.355 Y93.767 E20.37599
G1 X92.981 Y93.117 E20.40601
G1 F1500 E13.90601
;MESH:Trap Door OBJ.obj
G0 F6000 X133.6 Y133.1
;TYPE:WALL-INNER
G1 F1500 E20.40601
G1 F1200 X101.4 Y133.1 E21.47699
G1 X101.4 Y101.9 E22.5147
G1 X133.6 Y101.9 E23.58568
G1 X133.6 Y133.1 E24.62339
G0 F6000 X134 Y133.5
G1 F1200 X101 Y133.5 E25.72098
G1 X101 Y101.5 E26.7853
G1 X134 Y101.5 E27.88289
G1 X134 Y133.5 E28.94721
G0 F6000 X134.4 Y133.9
G1 F1200 X100.6 Y133.9 E30.0714
G1 X100.6 Y101.1 E31.16234
G1 X134.4 Y101.1 E32.28653
G1 X134.4 Y133.9 E33.37746
G0 F6000 X134.8 Y134.3
;TYPE:WALL-OUTER
G1 F1200 X100.2 Y134.3 E34.52826
G1 X100.2 Y100.7 E35.6458
G1 X134.8 Y100.7 E36.7966
G1 X134.8 Y134.3 E37.91414
G1 F1500 E31.41414
G0 F6000 X133.21 Y132.71
;TYPE:SKIN
G1 F1500 E37.91414
G1 F1200 X101.79 Y132.71 E38.95918
G1 X101.79 Y102.29 E39.97095
G1 X133.21 Y102.29 E41.01598
G1 X133.21 Y132.71 E42.02776
G1 F1500 E35.52776
G0 F6000 X133.049 Y103.067
G1 F1500 E42.02776
G1 F1200 X132.431 Y102.449 E42.05683
G0 F6000 X131.865 Y102.449
G1 F1200 X133.049 Y103.633 E42.11252
G0 F6000 X133.049 Y104.199
G1 F1200 X131.299 Y102.449 E42.19483
G0 F6000 X130.734 Y102.449
G1 F1200 X133.049 Y104.764 E42.30372
G0 F6000 X133.049 Y105.33
G1 F1200 X130.168 Y102.449 E42.43924
G0 F6000 X129.602 Y102.449
G1 F1200 X133.049 Y105.896 E42.60137
G0 F6000 X133.049 Y106.461
G1 F1200 X129.037 Y102.449 E42.79009
G0 F6000 X128.471 Y102.449
G1 F1200 X133.049 Y107.027 E43.00542
G0 F6000 X133.049 Y107.593
G1 F1200 X127.905 Y102.449 E43.24738
G0 F6000 X127.34 Y102.449
G1 F1200 X133.049 Y108.159 E43.51594
G0 F6000 X133.049 Y108.724
G1 F1200 X126.774 Y102.449 E43.81109
G0 F6000 X126.208 Y102.449
G1 F1200 X133.049 Y109.29 E44.13287
G0 F6000 X133.049 Y109.856
G1 F1200 X125.642 Y102.449 E44.48127
G0 F6000 X125.077 Y102.449
G1 F1200 X133.049 Y110.421 E44.85625
G0 F6000 X133.049 Y110.987
G1 F1200 X124.511 Y102.449 E45.25785
G0 F6000 X123.945 Y102.449
G1 F1200 X133.049 Y111.553 E45.68608
G0 F6000 X133.049 Y112.118
G1 F1200 X123.38 Y102.449 E46.14088
G0 F6000 X122.814 Y102.449
G1 F1200 X133.049 Y112.684 E46.6223
G0 F6000 X133.049 Y113.25
G1 F1200 X122.248 Y102.449 E47.13035
G0 F6000 X121.683 Y102.449
G1 F1200 X133.049 Y113.815 E47.66497
G0 F6000 X133.049 Y114.381
G1 F1200 X121.117 Y102.449 E48.22621
G0 F6000 X120.551 Y102.449
G1 F1200 X133.049 Y114.947 E48.81408
G0 F6000 X133.049 Y115.512
G1 F1200 X119.986 Y102.449 E49.42853
G0 F6000 X119.42 Y102.449
G1 F1200 X133.049 Y116.078 E50.06959
G0 F6000 X133.049 Y116.644
G1 F1200 X118.854 Y102.449 E50.73728
G0 F6000 X118.289 Y102.449
G1 F1200 X133.049 Y117.21 E51.43157
G0 F6000 X133.049 Y117.775
G1 F1200 X117.723 Y102.449 E52.15246
G0 F6000 X117.157 Y102.449
G1 F1200 X133.049 Y118.341 E52.89997
G0 F6000 X133.049 Y118.907
G1 F1200 X116.592 Y102.449 E53.67408
G0 F6000 X116.026 Y102.449
G1 F1200 X133.049 Y119.472 E54.47479
G0 F6000 X133.049 Y120.038
G1 F1200 X115.46 Y102.449 E55.30212
G0 F6000 X114.894 Y102.449
G1 F1200 X133.049 Y120.604 E56.15608
G0 F6000 X133.049 Y121.169
G1 F1200 X114.329 Y102.449 E57.03661
G0 F6000 X113.763 Y102.449
G1 F1200 X133.049 Y121.735 E57.94376
G0 F6000 X133.049 Y122.301
G1 F1200 X113.197 Y102.449 E58.87754
G0 F6000 X112.632 Y102.449
G1 F1200 X133.049 Y122.866 E59.83789
G0 F6000 X133.049 Y123.432
G1 F1200 X112.066 Y102.449 E60.82487
G0 F6000 X111.5 Y102.449
G1 F1200 X133.049 Y123.998 E61.83847
G0 F6000 X133.049 Y124.563
G1 F1200 X110.935 Y102.449 E62.87864
G0 F6000 X110.369 Y102.449
G1 F1200 X133.049 Y125.129 E63.94544
G0 F6000 X133.049 Y125.695
G1 F1200 X109.803 Y102.449 E65.03886
G0 F6000 X109.238 Y102.449
G1 F1200 X133.049 Y126.26 E66.15886
G0 F6000 X133.049 Y126.826
G1 F1200 X108.672 Y102.449 E67.30548
G0 F6000 X108.106 Y102.449
G1 F1200 X133.049 Y127.392 E68.47872
G0 F6000 X133.049 Y127.958
G1 F1200 X107.541 Y102.449 E69.67856
G0 F6000 X106.975 Y102.449
G1 F1200 X133.049 Y128.523 E70.905
G0 F6000 X133.049 Y129.089
G1 F1200 X106.409 Y102.449 E72.15807
G0 F6000 X105.843 Y102.449
G1 F1200 X133.049 Y129.655 E73.43775
G0 F6000 X133.049 Y130.22
G1 F1200 X105.278 Y102.449 E74.74401
G0 F6000 X104.712 Y102.449
G1 F1200 X133.049 Y130.786 E76.0769
G0 F6000 X133.049 Y131.352
G1 F1200 X104.146 Y102.449 E77.43641
G0 F6000 X103.581 Y102.449
G1 F1200 X133.049 Y131.917 E78.82249
G0 F6000 X133.049 Y132.483
G1 F1200 X103.015 Y102.449 E80.2352
G0 F6000 X102.449 Y102.449
G1 F1200 X132.549 Y132.549 E81.65101
G0 F6000 X131.983 Y132.549
G1 F1200 X101.949 Y102.515 E83.06372
G0 F6000 X101.949 Y103.081
G1 F1200 X131.417 Y132.549 E84.4498
G0 F6000 X130.852 Y132.549
G1 F1200 X101.949 Y103.647 E85.80929
G0 F6000 X101.949 Y104.212
G1 F1200 X130.286 Y132.549 E87.14217
G0 F6000 X129.72 Y132.549
G1 F1200 X101.949 Y104.778 E88.44844
G0 F6000 X101.949 Y105.344
G1 F1200 X129.155 Y132.549 E89.7281
G0 F6000 X128.589 Y132.549
G1 F1200 X101.949 Y105.909 E90.98116
G0 F6000 X101.949 Y106.475
G1 F1200 X128.023 Y132.549 E92.20761
G0 F6000 X127.458 Y132.549
G1 F1200 X101.949 Y107.041 E93.40745
G0 F6000 X101.949 Y107.606
G1 F1200 X126.892 Y132.549 E94.58069
G0 F6000 X126.326 Y132.549
G1 F1200 X101.949 Y108.172 E95.72731
G0 F6000 X101.949 Y108.738
G1 F1200 X125.761 Y132.549 E96.84733
G0 F6000 X125.195 Y132.549
G1 F1200 X101.949 Y109.303 E97.94075
G0 F6000 X101.949 Y109.869
G1 F1200 X124.629 Y132.549 E99.00755
G0 F6000 X124.064 Y132.549
G1 F1200 X101.949 Y110.435 E100.04775
G0 F6000 X101.949 Y111
G1 F1200 X123.498 Y132.549 E101.06134
G0 F6000 X122.932 Y132.549
G1 F1200 X101.949 Y111.566 E102.04832
G0 F6000 X101.949 Y112.132
G1 F1200 X122.366 Y132.549 E103.00867
G0 F6000 X121.801 Y132.549
G1 F1200 X101.949 Y112.697 E103.94245
G0 F6000 X101.949 Y113.263
G1 F1200 X121.235 Y132.549 E104.8496
G0 F6000 X120.669 Y132.549
G1 F1200 X101.949 Y113.829 E105.73014
G0 F6000 X101.949 Y114.395
G1 F1200 X120.104 Y132.549 E106.58407
G0 F6000 X119.538 Y132.549
G1 F1200 X101.949 Y114.96 E107.4114
G0 F6000 X101.949 Y115.526
G1 F1200 X118.972 Y132.549 E108.21211
G0 F6000 X118.407 Y132.549
G1 F1200 X101.949 Y116.092 E108.98622
G0 F6000 X101.949 Y116.657
G1 F1200 X117.841 Y132.549 E109.73373
G0 F6000 X117.275 Y132.549
G1 F1200 X101.949 Y117.223 E110.45462
G0 F6000 X101.949 Y117.789
G1 F1200 X116.71 Y132.549 E111.14891
G0 F6000 X116.144 Y132.549
G1 F1200 X101.949 Y118.354 E111.8166
G0 F6000 X101.949 Y118.92
G1 F1200 X115.578 Y132.549 E112.45766
G0 F6000 X115.013 Y132.549
G1 F1200 X101.949 Y119.486 E113.07213
G0 F6000 X101.949 Y120.051
G1 F1200 X114.447 Y132.549 E113.66
G0 F6000 X113.881 Y132.549
G1 F1200 X101.949 Y120.617 E114.22124
G0 F6000 X101.949 Y121.183
G1 F1200 X113.315 Y132.549 E114.75587
G0 F6000 X112.75 Y132.549
G1 F1200 X101.949 Y121.748 E115.26391
G0 F6000 X101.949 Y122.314
G1 F1200 X112.184 Y132.549 E115.74533
G0 F6000 X111.618 Y132.549
G1 F1200 X101.949 Y122.88 E116.20013
G0 F6000 X101.949 Y123.445
G1 F1200 X111.053 Y132.549 E116.62836
G0 F6000 X110.487 Y132.549
G1 F1200 X101.949 Y124.011 E117.02996
G0 F6000 X101.949 Y124.577
